X: 58
T:Mazurka de Lapleau
M:3/4
L:1/8
Q:270
C:Trad.
R:Mazurka
O:France
A:Massif Central
K:G
DG|B2BdBG|B2BdBG|A2AcBA|1B2G2:|2G4|:
dB|GDGBdB|c2A2cA|FDFAcA|B2G2dB|
GDGBdB|c2A2cA|FDFAcA|G4:||
W:
W: From "Falaleiro" http://home.t-online.de/home/pheld/homepage.htm
